src/Assets/meat.svg

<?xml version="1.0" encoding="UTF-8" standalone="no" ?>
<!DOCTYPE svg PUBLIC "-//W3C//DTD SVG 1.1//EN" "http://www.w3.org/Graphics/SVG/1.1/DTD/svg11.dtd">
<svg xmlns="http://www.w3.org/2000/svg" xmlns:xlink="http://www.w3.org/1999/xlink" version="1.1" width="202" height="29" viewBox="0 0 202 29" xml:space="preserve">
<desc>Created with Fabric.js 3.6.3</desc>
<defs>
</defs>
<g transform="matrix(1 0 0 1 90 -42)"  >
<g style=""   >
		<g transform="matrix(0.1 0 0 -0.1 11.5 57.12)" id="_9ajU8vREPzDf9haFUULi"  >
<path style="stroke: none; stroke-width: 1; stroke-dasharray: none; stroke-linecap: butt; stroke-dashoffset: 0; stroke-linejoin: miter; stroke-miterlimit: 4; fill: rgb(123,52,30); fill-rule: nonzero; opacity: 1;" vector-effect="non-scaling-stroke"  transform=" translate(-2410, -1548.61)" d="M 3390 1491.96 C 3390 1456.97 3371.52 1428.6100000000001 3336.52 1428.6100000000001 L 1503.23 1428.6100000000001 C 1468.24 1428.6100000000001 1430 1456.97 1430 1491.96 L 1430 1605.26 C 1430 1640.25 1468.24 1668.61 1503.23 1668.61 L 3336.52 1668.61 C 3371.52 1668.61 3390 1640.25 3390 1605.26 L 3390 1491.96" stroke-linecap="round" />
</g>
		<g transform="matrix(0.1 0 0 -0.1 11.5 57.12)" id="ZAlZOm7vPmHR7D4DMS0Wn"  >
<path style="stroke: none; stroke-width: 1; stroke-dasharray: none; stroke-linecap: butt; stroke-dashoffset: 0; stroke-linejoin: miter; stroke-miterlimit: 4; fill: rgb(9,16,25); fill-rule: nonzero; opacity: 1;" vector-effect="non-scaling-stroke"  transform=" translate(-2410, -1548.61)" d="M 3390 1491.96 L 3360 1491.96 C 3360.05 1479.64 3356.58 1470.3500000000001 3352.78 1465.68 C 3350.86 1463.26 3348.98 1461.77 3346.63 1460.6100000000001 C 3344.26 1459.4900000000002 3341.2400000000002 1458.63 3336.52 1458.6100000000001 L 1503.23 1458.6100000000001 C 1498.54 1458.5900000000001 1493.03 1459.6000000000001 1487.6100000000001 1461.66 C 1479.44 1464.68 1471.67 1470.14 1466.8300000000002 1475.93 C 1464.39 1478.8200000000002 1462.64 1481.72 1461.5600000000002 1484.4 C 1460.4700000000003 1487.0900000000001 1460.0100000000002 1489.51 1460.0000000000002 1491.96 L 1460.0000000000002 1605.26 C 1460.0100000000002 1608.5 1460.8300000000002 1611.78 1462.8600000000001 1615.56 C 1465.8400000000001 1621.1599999999999 1471.98 1627.4199999999998 1479.67 1631.8 C 1487.3000000000002 1636.25 1496.2 1638.6599999999999 1503.23 1638.61 L 3336.52 1638.61 C 3341.24 1638.59 3344.2599999999998 1637.7199999999998 3346.63 1636.6 C 3350.07 1634.8799999999999 3352.84 1632.34 3355.52 1627.1799999999998 C 3358.11 1622.09 3360.02 1614.4399999999998 3360 1605.2599999999998 L 3360 1491.9599999999998 L 3390 1491.9599999999998 L 3420 1491.9599999999998 L 3420 1605.2599999999998 C 3419.95 1627.9299999999998 3414.18 1650.3199999999997 3399.99 1668.5699999999997 C 3392.9199999999996 1677.6199999999997 3383.62 1685.3999999999996 3372.66 1690.6599999999996 C 3361.73 1695.9499999999996 3349.31 1698.6299999999997 3336.52 1698.6099999999997 L 1503.23 1698.6099999999997 C 1490.42 1698.5899999999997 1478.03 1696.0599999999997 1466.45 1691.6999999999996 C 1449.0900000000001 1685.1099999999997 1433.3500000000001 1674.4999999999995 1421.06 1660.0699999999995 C 1414.94 1652.8499999999995 1409.71 1644.6099999999994 1405.96 1635.3799999999994 C 1402.22 1626.1699999999994 1399.99 1615.9299999999994 1400 1605.2599999999995 L 1400 1491.9599999999996 C 1399.99 1477.6999999999996 1403.95 1464.3199999999995 1410.18 1452.9399999999996 C 1419.6000000000001 1435.7999999999995 1433.69 1422.7099999999996 1449.7 1413.4399999999996 C 1465.76 1404.2299999999996 1484.01 1398.6599999999996 1503.23 1398.6099999999997 L 3336.52 1398.6099999999997 C 3349.31 1398.5899999999997 3361.73 1401.2699999999998 3372.66 1406.5599999999997 C 3389.18 1414.4499999999998 3401.5899999999997 1427.9699999999998 3409.1 1443.0399999999997 C 3416.69 1458.1699999999998 3419.98 1474.8999999999996 3420 1491.9599999999998 L 3390 1491.9599999999998" stroke-linecap="round" />
</g>
		<g transform="matrix(0.1 0 0 -0.1 -69.1 56.49)" id="iQKgoU_UqUjEeN4XE4bLq"  >
<path style="stroke: none; stroke-width: 1; stroke-dasharray: none; stroke-linecap: butt; stroke-dashoffset: 0; stroke-linejoin: miter; stroke-miterlimit: 4; fill: rgb(55,15,18); fill-rule: nonzero; opacity: 1;" vector-effect="non-scaling-stroke"  transform=" translate(-1603.92, -1554.95)" d="M 1603.92 1536.88 C 1593.94 1536.88 1585.8400000000001 1544.96 1585.8400000000001 1554.94 C 1585.8400000000001 1564.93 1593.94 1573.02 1603.92 1573.02 C 1613.9 1573.02 1622 1564.93 1622 1554.94 C 1622 1544.96 1613.9 1536.88 1603.92 1536.88" stroke-linecap="round" />
</g>
		<g transform="matrix(0.1 0 0 -0.1 -27.93 60.45)" id="_Uk2x8dV89VnxiYlx1BY5"  >
<path style="stroke: none; stroke-width: 1; stroke-dasharray: none; stroke-linecap: butt; stroke-dashoffset: 0; stroke-linejoin: miter; stroke-miterlimit: 4; fill: rgb(55,15,18); fill-rule: nonzero; opacity: 1;" vector-effect="non-scaling-stroke"  transform=" translate(-2015.69, -1515.36)" d="M 2015.69 1497.28 C 2005.71 1497.28 1997.6200000000001 1505.36 1997.6200000000001 1515.35 C 1997.6200000000001 1525.33 2005.71 1533.4299999999998 2015.69 1533.4299999999998 C 2025.67 1533.4299999999998 2033.76 1525.33 2033.76 1515.35 C 2033.76 1505.36 2025.67 1497.28 2015.69 1497.28" stroke-linecap="round" />
</g>
		<g transform="matrix(0.1 0 0 -0.1 -10.5 58.87)" id="sqsherAamFh5uTYwBMNAv"  >
<path style="stroke: none; stroke-width: 1; stroke-dasharray: none; stroke-linecap: butt; stroke-dashoffset: 0; stroke-linejoin: miter; stroke-miterlimit: 4; fill: rgb(174,111,69); fill-rule: nonzero; opacity: 1;" vector-effect="non-scaling-stroke"  transform=" translate(-2189.9, -1531.19)" d="M 2189.91 1513.12 C 2179.93 1513.12 2171.83 1521.1999999999998 2171.83 1531.1899999999998 C 2171.83 1541.1699999999998 2179.93 1549.2599999999998 2189.91 1549.2599999999998 C 2199.8799999999997 1549.2599999999998 2207.98 1541.1699999999998 2207.98 1531.1899999999998 C 2207.98 1521.1999999999998 2199.88 1513.12 2189.91 1513.12" stroke-linecap="round" />
</g>
		<g transform="matrix(0.1 0 0 -0.1 63.93 57.28)" id="AkJIFWYMGY9S8MlZAclfO"  >
<path style="stroke: none; stroke-width: 1; stroke-dasharray: none; stroke-linecap: butt; stroke-dashoffset: 0; stroke-linejoin: miter; stroke-miterlimit: 4; fill: rgb(174,111,69); fill-rule: nonzero; opacity: 1;" vector-effect="non-scaling-stroke"  transform=" translate(-2934.27, -1547.03)" d="M 2934.28 1528.95 C 2924.3 1528.95 2916.19 1537.04 2916.19 1547.02 C 2916.19 1557.02 2924.3 1565.11 2934.28 1565.11 C 2944.2400000000002 1565.11 2952.34 1557.02 2952.34 1547.02 C 2952.34 1537.04 2944.2400000000002 1528.95 2934.28 1528.95" stroke-linecap="round" />
</g>
		<g transform="matrix(0.1 0 0 -0.1 -50.89 59.66)" id="7"  >
<path style="stroke: none; stroke-width: 1; stroke-dasharray: none; stroke-linecap: butt; stroke-dashoffset: 0; stroke-linejoin: miter; stroke-miterlimit: 4; fill: rgb(174,111,69); fill-rule: nonzero; opacity: 1;" vector-effect="non-scaling-stroke"  transform=" translate(-1786.05, -1523.28)" d="M 1786.05 1505.21 C 1776.07 1505.21 1767.98 1513.28 1767.98 1523.26 C 1767.98 1533.25 1776.07 1541.34 1786.05 1541.34 C 1796.03 1541.34 1804.12 1533.25 1804.12 1523.26 C 1804.12 1513.28 1796.03 1505.21 1786.05 1505.21" stroke-linecap="round" />
</g>
		<g transform="matrix(0.1 0 0 -0.1 13.25 54.91)" id="4"  >
<path style="stroke: none; stroke-width: 1; stroke-dasharray: none; stroke-linecap: butt; stroke-dashoffset: 0; stroke-linejoin: miter; stroke-miterlimit: 4; fill: rgb(55,15,18); fill-rule: nonzero; opacity: 1;" vector-effect="non-scaling-stroke"  transform=" translate(-2427.47, -1570.78)" d="M 2427.46 1552.71 C 2417.4900000000002 1552.71 2409.39 1560.8 2409.39 1570.78 C 2409.39 1580.76 2417.49 1588.86 2427.46 1588.86 C 2437.44 1588.86 2445.55 1580.76 2445.55 1570.78 C 2445.55 1560.8 2437.44 1552.71 2427.46 1552.71" stroke-linecap="round" />
</g>
		<g transform="matrix(0.1 0 0 -0.1 45.72 60.45)" id="J4xmNJL-uiE0NwnlQMPz8"  >
<path style="stroke: none; stroke-width: 1; stroke-dasharray: none; stroke-linecap: butt; stroke-dashoffset: 0; stroke-linejoin: miter; stroke-miterlimit: 4; fill: rgb(55,15,18); fill-rule: nonzero; opacity: 1;" vector-effect="non-scaling-stroke"  transform=" translate(-2752.13, -1515.36)" d="M 2752.13 1497.28 C 2742.15 1497.28 2734.06 1505.36 2734.06 1515.35 C 2734.06 1525.33 2742.15 1533.4299999999998 2752.13 1533.4299999999998 C 2762.11 1533.4299999999998 2770.19 1525.33 2770.19 1515.35 C 2770.19 1505.36 2762.11 1497.28 2752.13 1497.28" stroke-linecap="round" />
</g>
		<g transform="matrix(0.1 0 0 -0.1 87.91 56.93)" id="Y0O8xOSRurX2LV42YqKyK"  >
<path style="stroke: none; stroke-width: 1; stroke-dasharray: none; stroke-linecap: butt; stroke-dashoffset: 0; stroke-linejoin: miter; stroke-miterlimit: 4; fill: rgb(89,30,22); fill-rule: nonzero; opacity: 1;" vector-effect="non-scaling-stroke"  transform=" translate(-3174.01, -1550.52)" d="M 3354.76 1468.61 L 2988.0200000000004 1468.61 C 3009.9300000000003 1514.86 3029.1100000000006 1561.87 3045.5800000000004 1609.61 C 3052.2100000000005 1611.3999999999999 3058.26 1613.31 3063.8700000000003 1615.1899999999998 C 3077.86 1619.8899999999999 3088.7900000000004 1624.0599999999997 3101.9100000000003 1627.12 C 3115.0400000000004 1630.1699999999998 3130.9200000000005 1632.4099999999999 3154.86 1632.4299999999998 C 3175.36 1632.4299999999998 3189.9900000000002 1630.7599999999998 3201.98 1628.3799999999999 C 3211 1626.58 3218.62 1624.36 3226.4900000000002 1621.78 C 3238.23 1617.96 3250.8500000000004 1613.02 3267.2000000000003 1608.83 C 3283.5400000000004 1604.6299999999999 3303.13 1601.52 3328.28 1600.8999999999999 C 3328.5400000000004 1600.8999999999999 3328.8 1600.8899999999999 3329.0600000000004 1600.8899999999999 C 3336.9000000000005 1600.8899999999999 3344.3500000000004 1603.9199999999998 3349.9800000000005 1609.4099999999999 C 3353.5800000000004 1612.9099999999999 3356.1900000000005 1617.1799999999998 3357.6600000000003 1621.85 C 3359.09 1617.29 3360.01 1611.6499999999999 3360.0000000000005 1605.26 L 3360.0000000000005 1491.96 L 3360.0000000000005 1491.96 C 3360.0400000000004 1481.83 3357.7000000000003 1473.76 3354.7600000000007 1468.6100000000001 M 3306.4500000000007 1541.3400000000001 C 3296.460000000001 1541.3400000000001 3288.3800000000006 1533.2500000000002 3288.3800000000006 1523.2600000000002 C 3288.3800000000006 1513.2800000000002 3296.4600000000005 1505.2100000000003 3306.4500000000007 1505.2100000000003 C 3316.4100000000008 1505.2100000000003 3324.5100000000007 1513.2800000000002 3324.5100000000007 1523.2600000000002 C 3324.5100000000007 1533.2500000000002 3316.4100000000008 1541.3400000000001 3306.4500000000007 1541.3400000000001 M 3161.6600000000008 1554.94 L 3161.6600000000008 1554.94 C 3161.6600000000008 1544.96 3169.770000000001 1536.88 3179.750000000001 1536.88 C 3189.730000000001 1536.88 3197.810000000001 1544.96 3197.810000000001 1554.94 L 3197.810000000001 1554.94 L 3197.810000000001 1554.94 C 3197.810000000001 1564.93 3189.730000000001 1573.02 3179.750000000001 1573.02 C 3169.770000000001 1573.02 3161.6600000000008 1564.93 3161.6600000000008 1554.94 L 3161.6600000000008 1554.94" stroke-linecap="round" />
</g>
		<g transform="matrix(0.1 0 0 -0.1 108.58 56.3)" id="lsC4tnlKVf8pnmQPHN3RS"  >
<path style="stroke: none; stroke-width: 1; stroke-dasharray: none; stroke-linecap: butt; stroke-dashoffset: 0; stroke-linejoin: miter; stroke-miterlimit: 4; fill: rgb(7,11,14); fill-rule: nonzero; opacity: 1;" vector-effect="non-scaling-stroke"  transform=" translate(-3380.74, -1556.88)" d="M 3370 1439.08 L 3370 1439.08 L 3370 1468.61 L 3354.76 1468.61 C 3357.7000000000003 1473.76 3360.0400000000004 1481.83 3360 1491.9599999999998 L 3360 1491.9599999999998 L 3360 1491.9599999999998 L 3360 1605.2599999999998 C 3360.01 1611.6499999999999 3359.09 1617.2899999999997 3357.66 1621.8499999999997 C 3358.5699999999997 1624.7399999999998 3359.04 1627.7799999999997 3359.04 1630.8899999999996 L 3359.04 1674.6799999999996 C 3386.45 1667.7099999999996 3406.72 1642.8599999999997 3406.72 1613.2799999999995 L 3406.72 1494.5099999999995 C 3406.72 1480.2499999999995 3402.0099999999998 1467.0999999999995 3394.06 1456.5099999999995 C 3393.2 1457.6799999999996 3392.25 1458.7899999999995 3391.21 1459.8199999999995 C 3385.63 1465.4099999999994 3377.9 1468.6099999999994 3370 1468.6099999999994 L 3370 1439.0799999999995" stroke-linecap="round" />
</g>
		<g transform="matrix(0.1 0 0 -0.1 88.69 67)" id="j7Puro9V2OJbQvQK-BqL0"  >
<path style="stroke: none; stroke-width: 1; stroke-dasharray: none; stroke-linecap: butt; stroke-dashoffset: 0; stroke-linejoin: miter; stroke-miterlimit: 4; fill: rgb(7,11,14); fill-rule: nonzero; opacity: 1;" vector-effect="non-scaling-stroke"  transform=" translate(-3181.84, -1449.89)" d="M 2969.7 1431.16 L 2969.6099999999997 1431.16 C 2975.95 1443.5900000000001 2982.0799999999995 1456.0700000000002 2988.0199999999995 1468.6100000000001 L 3354.7599999999993 1468.6100000000001 L 3369.999999999999 1468.6100000000001 L 3369.999999999999 1439.0800000000002 L 2973.709999999999 1439.0800000000002 C 2972.379999999999 1436.43 2971.0499999999993 1433.7900000000002 2969.699999999999 1431.16 M 3374.069999999999 1439.0800000000002 L 3370 1439.0800000000002 L 3370 1468.6100000000001 C 3377.9 1468.6100000000001 3385.63 1465.41 3391.21 1459.8200000000002 C 3392.25 1458.7900000000002 3393.2 1457.68 3394.06 1456.5100000000002 C 3388.72 1449.3900000000003 3381.9 1443.4200000000003 3374.07 1439.0800000000002" stroke-linecap="round" />
</g>
		<g transform="matrix(0.1 0 0 -0.1 101.15 59.66)" id="Tkb3Xn_yN2DESAKQx9uhk"  >
<path style="stroke: none; stroke-width: 1; stroke-dasharray: none; stroke-linecap: butt; stroke-dashoffset: 0; stroke-linejoin: miter; stroke-miterlimit: 4; fill: rgb(128,66,41); fill-rule: nonzero; opacity: 1;" vector-effect="non-scaling-stroke"  transform=" translate(-3306.44, -1523.28)" d="M 3306.45 1505.21 C 3296.46 1505.21 3288.3799999999997 1513.28 3288.3799999999997 1523.26 C 3288.3799999999997 1533.25 3296.4599999999996 1541.34 3306.45 1541.34 C 3316.41 1541.34 3324.5099999999998 1533.25 3324.5099999999998 1523.26 C 3324.5099999999998 1513.28 3316.41 1505.21 3306.45 1505.21" stroke-linecap="round" />
</g>
		<g transform="matrix(0.1 0 0 -0.1 87.69 68.47)" id="qU3b2C_nWwh6mh9WC47te"  >
<path style="stroke: none; stroke-width: 1; stroke-dasharray: none; stroke-linecap: butt; stroke-dashoffset: 0; stroke-linejoin: miter; stroke-miterlimit: 4; fill: rgb(7,9,10); fill-rule: nonzero; opacity: 1;" vector-effect="non-scaling-stroke"  transform=" translate(-3171.89, -1435.12)" d="M 3343.38 1431.16 L 2969.7 1431.16 C 2971.0499999999997 1433.7900000000002 2972.3799999999997 1436.43 2973.71 1439.0800000000002 L 3370 1439.0800000000002 L 3370 1438.6100000000001 L 3370 1439.0800000000002 L 3374.07 1439.0800000000002 C 3364.9700000000003 1434.0300000000002 3354.51 1431.16 3343.38 1431.16" stroke-linecap="round" />
</g>
		<g transform="matrix(0.1 0 0 -0.1 88.48 56.49)" id="9"  >
<path style="stroke: none; stroke-width: 1; stroke-dasharray: none; stroke-linecap: butt; stroke-dashoffset: 0; stroke-linejoin: miter; stroke-miterlimit: 4; fill: rgb(27,11,12); fill-rule: nonzero; opacity: 1;" vector-effect="non-scaling-stroke"  transform=" translate(-3179.73, -1554.95)" d="M 3179.75 1536.88 C 3169.77 1536.88 3161.66 1544.96 3161.66 1554.94 C 3161.66 1564.93 3169.77 1573.02 3179.75 1573.02 C 3189.73 1573.02 3197.81 1564.93 3197.81 1554.94 C 3197.81 1544.96 3189.73 1536.88 3179.75 1536.88" stroke-linecap="round" />
</g>
		<g transform="matrix(0.1 0 0 -0.1 66.47 70.79)" id="LfAtKOTKIIXYbXz-yWh3J"  >
<path style="stroke: none; stroke-width: 1; stroke-dasharray: none; stroke-linecap: butt; stroke-dashoffset: 0; stroke-linejoin: miter; stroke-miterlimit: 4; fill: rgb(9,16,25); fill-rule: nonzero; opacity: 1;" vector-effect="non-scaling-stroke"  transform=" translate(-2959.69, -1411.96)" d="M 2957.98 1408.61 L 2957.86 1408.61 C 2959.05 1410.84 2960.23 1413.08 2961.4100000000003 1415.32 L 2961.5200000000004 1415.32 C 2960.3400000000006 1413.08 2959.1600000000003 1410.84 2957.9800000000005 1408.61" stroke-linecap="round" />
</g>
		<g transform="matrix(0.1 0 0 -0.1 65.38 72.81)" id="jHCNTQfN5FtCZbEMCin8Y"  >
<path style="stroke: none; stroke-width: 1; stroke-dasharray: none; stroke-linecap: butt; stroke-dashoffset: 0; stroke-linejoin: miter; stroke-miterlimit: 4; fill: rgb(230,123,72); fill-rule: nonzero; opacity: 1;" vector-effect="non-scaling-stroke"  transform=" translate(-2948.76, -1391.77)" d="M 2939.53 1374.92 L 2939.53 1375.22 C 2945.8 1386.31 2951.9100000000003 1397.44 2957.86 1408.6100000000001 L 2957.98 1408.6100000000001 C 2951.9900000000002 1397.3300000000002 2945.85 1386.1000000000001 2939.53 1374.92" stroke-linecap="round" />
</g>
		<g transform="matrix(0.1 0 0 -0.1 71.32 70.79)" id="BSlLDYXTCzyixVHuVCQgP"  >
<path style="stroke: none; stroke-width: 1; stroke-dasharray: none; stroke-linecap: butt; stroke-dashoffset: 0; stroke-linejoin: miter; stroke-miterlimit: 4; fill: rgb(7,12,15); fill-rule: nonzero; opacity: 1;" vector-effect="non-scaling-stroke"  transform=" translate(-3008.14, -1411.96)" d="M 3058.3 1408.61 L 2957.98 1408.61 C 2959.16 1410.84 2960.34 1413.08 2961.52 1415.32 L 3058.3 1415.32 L 3058.3 1408.61" stroke-linecap="round" />
</g>
</g>
</g>
</svg>

<svg height="29" viewBox="0 0 202 29" width="202" xmlns="http://www.w3.org/2000/svg"><path d="m3390 1491.96c0-34.99-18.48-63.35-53.48-63.35h-1833.29c-34.99 0-73.23 28.36-73.23 63.35v113.3c0 34.99 38.24 63.35 73.23 63.35h1833.29c35 0 53.48-28.36 53.48-63.35z" fill="#7b341e" transform="matrix(.1 0 0 -.1 -139.5 169.981)"/><path d="m3390 1491.96h-30c.05-12.32-3.42-21.61-7.22-26.28-1.92-2.42-3.8-3.91-6.15-5.07-2.37-1.12-5.39-1.98-10.11-2h-1833.29c-4.69-.02-10.2.99-15.62 3.05-8.17 3.02-15.94 8.48-20.78 14.27-2.44 2.89-4.19 5.79-5.27 8.47-1.09 2.69-1.55 5.11-1.56 7.56v113.3c.01 3.24.83 6.52 2.86 10.3 2.98 5.6 9.12 11.86 16.81 16.24 7.63 4.45 16.53 6.86 23.56 6.81h1833.29c4.72-.02 7.74-.89 10.11-2.01 3.44-1.72 6.21-4.26 8.89-9.42 2.59-5.09 4.5-12.74 4.48-21.92v-113.3h30 30v113.3c-.05 22.67-5.82 45.06-20.01 63.31-7.07 9.05-16.37 16.83-27.33 22.09-10.93 5.29-23.35 7.97-36.14 7.95h-1833.29c-12.81-.02-25.2-2.55-36.78-6.91-17.36-6.59-33.1-17.2-45.39-31.63-6.12-7.22-11.35-15.46-15.1-24.69-3.74-9.21-5.97-19.45-5.96-30.12v-113.3c-.01-14.26 3.95-27.64 10.18-39.02 9.42-17.14 23.51-30.23 39.52-39.5 16.06-9.21 34.31-14.78 53.53-14.83h1833.29c12.79-.02 25.21 2.66 36.14 7.95 16.52 7.89 28.93 21.41 36.44 36.48 7.59 15.13 10.88 31.86 10.9 48.92z" fill="#091019" transform="matrix(.1 0 0 -.1 -139.5 169.981)"/><path d="m1603.92 1536.88c-9.98 0-18.08 8.08-18.08 18.06 0 9.99 8.1 18.08 18.08 18.08s18.08-8.09 18.08-18.08c0-9.98-8.1-18.06-18.08-18.06" fill="#370f12" transform="matrix(.1 0 0 -.1 -139.492 169.985)"/><path d="m2015.69 1497.28c-9.98 0-18.07 8.08-18.07 18.07 0 9.98 8.09 18.08 18.07 18.08s18.07-8.1 18.07-18.08c0-9.99-8.09-18.07-18.07-18.07" fill="#370f12" transform="matrix(.1 0 0 -.1 -139.499 169.986)"/><g fill="#ae6f45"><path d="m2189.91 1513.12c-9.98 0-18.08 8.08-18.08 18.07 0 9.98 8.1 18.07 18.08 18.07 9.97 0 18.07-8.09 18.07-18.07 0-9.99-8.1-18.07-18.07-18.07" transform="matrix(.1 0 0 -.1 -139.49 169.989)"/><path d="m2934.28 1528.95c-9.98 0-18.09 8.09-18.09 18.07 0 10 8.11 18.09 18.09 18.09 9.96 0 18.06-8.09 18.06-18.09 0-9.98-8.1-18.07-18.06-18.07" transform="matrix(.1 0 0 -.1 -139.497 169.983)"/><path d="m1786.05 1505.21c-9.98 0-18.07 8.07-18.07 18.05 0 9.99 8.09 18.08 18.07 18.08s18.07-8.09 18.07-18.08c0-9.98-8.09-18.05-18.07-18.05" transform="matrix(.1 0 0 -.1 -139.495 169.988)"/></g><path d="m2427.46 1552.71c-9.97 0-18.07 8.09-18.07 18.07s8.1 18.08 18.07 18.08c9.98 0 18.09-8.1 18.09-18.08s-8.11-18.07-18.09-18.07" fill="#370f12" transform="matrix(.1 0 0 -.1 -139.497 169.988)"/><path d="m2752.13 1497.28c-9.98 0-18.07 8.08-18.07 18.07 0 9.98 8.09 18.08 18.07 18.08s18.06-8.1 18.06-18.08c0-9.99-8.08-18.07-18.06-18.07" fill="#370f12" transform="matrix(.1 0 0 -.1 -139.493 169.986)"/><path d="m3354.76 1468.61h-366.74c21.91 46.25 41.09 93.26 57.56 141 6.63 1.79 12.68 3.7 18.29 5.58 13.99 4.7 24.92 8.87 38.04 11.93 13.13 3.05 29.01 5.29 52.95 5.31 20.5 0 35.13-1.67 47.12-4.05 9.02-1.8 16.64-4.02 24.51-6.6 11.74-3.82 24.36-8.76 40.71-12.95 16.34-4.2 35.93-7.31 61.08-7.93.26 0 .52-.01.78-.01 7.84 0 15.29 3.03 20.92 8.52 3.6 3.5 6.21 7.77 7.68 12.44 1.43-4.56 2.35-10.2 2.34-16.59v-113.3c.04-10.13-2.3-18.2-5.24-23.35m-48.31 72.73c-9.99 0-18.07-8.09-18.07-18.08 0-9.98 8.08-18.05 18.07-18.05 9.96 0 18.06 8.07 18.06 18.05 0 9.99-8.1 18.08-18.06 18.08m-144.79 13.6c0-9.98 8.11-18.06 18.09-18.06s18.06 8.08 18.06 18.06c0 9.99-8.08 18.08-18.06 18.08s-18.09-8.09-18.09-18.08z" fill="#591e16" transform="matrix(.1 0 0 -.1 -139.491 169.982)"/><path d="m3370 1439.08v29.53h-15.24c2.94 5.15 5.28 13.22 5.24 23.35v113.3c.01 6.39-.91 12.03-2.34 16.59.91 2.89 1.38 5.93 1.38 9.04v43.79c27.41-6.97 47.68-31.82 47.68-61.4v-118.77c0-14.26-4.71-27.41-12.66-38-.86 1.17-1.81 2.28-2.85 3.31-5.58 5.59-13.31 8.79-21.21 8.79z" fill="#070b0e" transform="matrix(.1 0 0 -.1 -139.494 169.988)"/><path d="m2969.7 1431.16h-.09c6.34 12.43 12.47 24.91 18.41 37.45h366.74 15.24v-29.53h-396.29c-1.33-2.65-2.66-5.29-4.01-7.92m404.37 7.92h-4.07v29.53c7.9 0 15.63-3.2 21.21-8.79 1.04-1.03 1.99-2.14 2.85-3.31-5.34-7.12-12.16-13.09-19.99-17.43" fill="#070b0e" transform="matrix(.1 0 0 -.1 -139.494 169.989)"/><path d="m3306.45 1505.21c-9.99 0-18.07 8.07-18.07 18.05 0 9.99 8.08 18.08 18.07 18.08 9.96 0 18.06-8.09 18.06-18.08 0-9.98-8.1-18.05-18.06-18.05" fill="#804229" transform="matrix(.1 0 0 -.1 -139.494 169.988)"/><path d="m3343.38 1431.16h-373.68c1.35 2.63 2.68 5.27 4.01 7.92h396.29v-.47.47h4.07c-9.1-5.05-19.56-7.92-30.69-7.92" fill="#07090a" transform="matrix(.1 0 0 -.1 -139.499 169.982)"/><path d="m3179.75 1536.88c-9.98 0-18.09 8.08-18.09 18.06 0 9.99 8.11 18.08 18.09 18.08s18.06-8.09 18.06-18.08c0-9.98-8.08-18.06-18.06-18.06" fill="#1b0b0c" transform="matrix(.1 0 0 -.1 -139.493 169.985)"/><path d="m2957.98 1408.61h-.12c1.19 2.23 2.37 4.47 3.55 6.71h.11c-1.18-2.24-2.36-4.48-3.54-6.71" fill="#091019" transform="matrix(.1 0 0 -.1 -139.499 169.986)"/><path d="m2939.53 1374.92v.3c6.27 11.09 12.38 22.22 18.33 33.39h.12c-5.99-11.28-12.13-22.51-18.45-33.69" fill="#e67b48" transform="matrix(.1 0 0 -.1 -139.496 169.987)"/><path d="m3058.3 1408.61h-100.32c1.18 2.23 2.36 4.47 3.54 6.71h96.78z" fill="#070c0f" transform="matrix(.1 0 0 -.1 -139.494 169.986)"/></svg>
